X:0354
M:6/8
L:1/8
Q:3/8=86
P:ABA % Aird uses a da capo
K:D
P:A
a/f/|d2d efe|cBc d3|e2g fad|dcd eag|\
     d2d efe|cBc d3|efe cBc|d3  d2::
P:B
     AAA AAA|Ace e3|afd def|f3  e2|]

